X:55
T:The Sword Dancers' Song
Z:Jack Campin, http://www.campin.me.uk/
S:Northumbrian Minstrelsy
M:C
L:1/8
Q:"Andantino"
K:G Mixolydian
d2|e2 c2 d2 B2|G6 G2|B2 d2 f2 f2|c6
B2|c3 d  e g3 |d6 B2|G2 B2 c2 A2|G6|]

